X:71
T: VOLL ZAERTLICHKEIT WILL ICH DER DIRNE SAGEN
N: B0557
O: Europa, Mitteleuropa, Deutschland
R: Studenten - Lied
M: 4/4
L: 1/16
K: C
G,2 | C3DE2D2C2B,2C2A,2 | G,4F,4E,6
G,2 | A,2F2E2D2E4D4 | C12z2
G,2 | C3DE2D2C2B,2C2A,2 | G,4F,4E,6
G,2 | A,2F2E2D2E4D4 | C12z2
C2 | B,2C2D6G,2A,2B,2 | C2D2E2D2C4z2
C2 | B,2C2D6G,2A,2B,2 | C2D2E2D2C4z2
G,2 | C3DE2D2C2B,2C2A,2 | G,4F,4E,6
G,2 | A,2F2E2D2E4D4 | C12z2

